X:1
T:Alankaar 7 — Septuples
C:Exercise
M:none
L:1/4
Q:1/4=90
K:C
% Each scale degree repeated 7× ascending then descending.
CCCCCCC DDDDDDD | EEEEEEE FFFFFFF | GGGGGGG AAAAAAA | BBBBBBB ccccccc | ccccccc BBBBBBB | AAAAAAA GGGGGGG | FFFFFFF EEEEEEE | DDDDDDD CCCCCCC |
